X:7847
T:Der gjik tv\ae systa
C:anon.
O:Norway
A:Valdres
B:Ballade?
Z:Transcribed by Frank Nordberg - http://www.musicaviva.com
F:http://abc.musicaviva.com/tunes/norway/tvae-systa/tvae-systa-1.abc
M:2/4
L:1/8
Q:1/4=63
K:Am
^G|AAcc|Be/^d/e2|c>B A>B|cd BB/c/|
w:Der gjik tv\ae sys-ta burt m\ae ei \aa, Lin--dan, dei vil-d\o vas-k\o seg
A2c2|B>^GE2|A2^G>A|[M:3/4][L:1/8]B2c>B A>^G|A2A4|]
w:li-ka, d\ae va d\aa, d\ae va ei stolt jom--fru me tvin-ga.
W:
W:Der gjik tv\ae systa burt m\ae ei \aa,
W:  Lin-dan,
W:dei vild\o vask\o seg lika,
W:  d\ae va d\aa,
W:d\ae va ei stolt jomfru me tvinga.
W:
W:
W:  From Musica Viva - http://www.musicaviva.com
W:  the Internet center for free sheet music downloads.

